icons/desktop/16/svg/bookmark-16.svg

<svg width="16" height="16" viewBox="0 0 16 16" fill="none" xmlns="http://www.w3.org/2000/svg">
<path fill-rule="evenodd" clip-rule="evenodd" d="M6.46451 1.47984C7.10772 0.166235 9.04421 0.211694 9.6022 1.60972L9.60318 1.6107L10.7868 4.58433L14.3854 4.81871L14.5192 4.83238C15.8828 5.02445 16.5505 6.75129 15.4762 7.77085C15.2561 7.97946 15.0208 8.19088 14.7702 8.40171C13.9819 9.06515 13.2135 9.57825 12.5309 9.97593L13.3854 13.3275C13.768 14.8273 12.1663 15.9758 10.8629 15.2464C10.41 14.9928 9.94305 14.7057 9.46744 14.3793C8.92463 14.0073 8.43883 13.6279 8.00455 13.2591C7.69046 13.5256 7.35042 13.7978 6.98111 14.0677L6.54165 14.3793C6.06565 14.706 5.59821 14.9933 5.14712 15.2464C3.8438 15.9759 2.24111 14.8273 2.62369 13.3275L3.47622 9.97593C2.79402 9.57836 2.02666 9.06468 1.23892 8.40171C0.98824 8.19088 0.75301 7.98044 0.532866 7.77183C-0.576052 6.71945 0.171002 4.91255 1.62369 4.81871L5.22134 4.58433L6.40591 1.6107L6.46451 1.47984ZM8.20962 2.16539C8.13517 1.97926 7.87334 1.98201 7.80044 2.16539L6.44009 5.58042C6.33302 5.84934 6.08049 6.03236 5.79165 6.05113L1.72037 6.31578C1.62543 6.32192 1.55415 6.3765 1.52017 6.46617C1.50329 6.51076 1.50194 6.55345 1.50845 6.58628C1.51419 6.61472 1.52766 6.64741 1.56509 6.68296L1.87466 6.96714C1.98132 7.0625 2.0911 7.15868 2.20474 7.25425C3.10488 8.01182 3.97538 8.55577 4.69986 8.94273C5.00407 9.10551 5.15814 9.45502 5.0729 9.78941L4.07681 13.6976C4.06177 13.7567 4.06854 13.7988 4.07974 13.8285C4.09239 13.8619 4.11709 13.8965 4.15396 13.9242C4.2256 13.9778 4.31666 13.9913 4.41275 13.9378C4.8275 13.7051 5.25623 13.442 5.69205 13.1429L6.09537 12.8568C6.48718 12.5704 6.84429 12.2836 7.16763 12.0033C7.62215 11.6092 8.26994 11.5844 8.74869 11.9291L8.84244 12.0033L9.1774 12.2865C9.40791 12.476 9.65316 12.6673 9.91372 12.8578L10.3161 13.1419C10.7525 13.4415 11.1803 13.7055 11.5954 13.9378C11.6917 13.9917 11.7833 13.978 11.8551 13.9242C11.892 13.8965 11.9167 13.8619 11.9293 13.8285C11.9406 13.7988 11.9473 13.7577 11.9323 13.6986L10.9362 9.78941C10.8509 9.45502 11.005 9.10551 11.3092 8.94273C12.0337 8.55577 12.9042 8.01182 13.8043 7.25425C14.0314 7.0633 14.2443 6.87215 14.444 6.68296L14.484 6.63121C14.4928 6.61525 14.4978 6.60037 14.5006 6.58628C14.5072 6.55345 14.5058 6.51076 14.4889 6.46617C14.4549 6.37651 14.3836 6.32193 14.2887 6.31578L10.2174 6.05113C9.92859 6.03237 9.67607 5.84935 9.569 5.58042L8.44497 2.75816L8.20962 2.16539Z" fill="black"/>
</svg>

<!-- This Source Code Form is subject to the terms of the Mozilla Public
   - License, v. 2.0. If a copy of the MPL was not distributed with this
   - file, You can obtain one at http://mozilla.org/MPL/2.0/. -->
<svg xmlns="http://www.w3.org/2000/svg" width="16" height="16" fill="context-fill" fill-opacity="context-fill-opacity" viewBox="0 0 16 16">
    <path fill-rule="evenodd" d="M6.465 1.48c.643-1.314 2.58-1.268 3.137.13h.001l1.184 2.974 3.598.235.134.013c1.364.192 2.031 1.92.957 2.939q-.33.314-.706.63a16 16 0 0 1-2.24 1.575l.855 3.351c.383 1.5-1.219 2.649-2.522 1.92a18 18 0 0 1-2.858-1.988 18 18 0 0 1-1.024.809l-.44.311a18 18 0 0 1-1.394.867c-1.303.73-2.906-.419-2.523-1.918l.852-3.352A16 16 0 0 1 .533 7.772c-1.11-1.053-.362-2.86 1.09-2.953l3.598-.235 1.185-2.973zm1.745.685a.22.22 0 0 0-.41 0L6.44 5.58a.75.75 0 0 1-.648.471l-4.072.265a.22.22 0 0 0-.2.15.2.2 0 0 0-.012.12c.006.029.02.061.057.097l.31.284q.159.144.33.287c.9.758 1.77 1.302 2.495 1.689a.75.75 0 0 1 .373.846l-.996 3.909a.2.2 0 0 0 .003.13.2.2 0 0 0 .074.096.23.23 0 0 0 .259.014c.414-.233.843-.496 1.279-.795l.403-.286q.588-.432 1.073-.854a1.27 1.27 0 0 1 1.58-.074l.094.074.335.284q.345.284.737.57l.402.285q.655.449 1.28.796c.096.054.187.04.26-.014a.2.2 0 0 0 .073-.095.2.2 0 0 0 .003-.13l-.996-3.91a.75.75 0 0 1 .373-.846 14.4 14.4 0 0 0 3.135-2.26l.04-.052a.2.2 0 0 0 .017-.045.2.2 0 0 0-.012-.12.22.22 0 0 0-.2-.15l-4.072-.265a.75.75 0 0 1-.648-.47L8.445 2.757z" clip-rule="evenodd" />
</svg>
